!!!SOCIAL_FUNCTION:	council songs
!!!PDT:	1918

Specific Region: Dakotas, Minnesota, Montana, Nebraska
!!!REG: Dakotas and Montana
!!!LING_GROUP: Siouan
!!!LANG: Tone
!!!OTL@ENG: I Wish To Do My Part
!!!ONM: No. 186
**kern
*Imale
*clefF4
*M3/4
*MM66
16e
8.e
4e
8e
8B
=2
16B
8.e
4e
4e
=3||
*M2/4
8.f
16e
16f
8.f
=4
8f
8e
8e
8B
=5||
*M3/4
8c
8c
8B
8B
4A
=6
16B
16B
8B
16B
16B
[8B
4B]
=7||
*M2/4
8.c
16B
16c
8.c
=8||
*M3/4
8c
8B
8B
16A
16A
8A
8A
=9
8c
8c
4B
8.B
16A
=10||
*M2/4
16c
8.A
8A
8A
=11
[2A
=12
4A]
8E
8E
=13||
*M3/4
8c
8c
8B
8B
8A
16A
16E
=14
8A
8A
4E
8E
8E
=15||
*M2/4
2E
=16
4E
4r
=17||
*M3/4
16c
8.A
8c
8c
8c
8c
=18
8d-
16.d-
32c
16d-
8.d-
8d-
8c
=19||
*M2/4
8c
8A
8A
8A
=20||
*M3/4
16A
8.c
8d-
8c
8c
8A
=21||
*M2/4
16c
8.A
8A
8A
=22
[2A
=23
4A]
8E
8E
=24||
*M3/4
8c
8c
8B
8B
8A
16A
16E
=25
8A
8A
4E
8E
8E
=26||
*M2/4
2E
=27
4E
4r
==
*-
!!!CNT: Native American -- Sioux
!!!MRD: 1911/07//-1914///
!!!OCL: Frances Densmore
!!!YOR1: Teton Sioux Music, Bulletin 61,
!!!YOR2: Bureau of American Ethnology, Smithsonian Institution
!!!PPR: Government Printing Office
!!!PPP: Washington, D.C.
!!!PDT: 1918///
!!!ENC: Craig Stuart Sapp
!!!END: 2002/03/25/
!!!EEV: 2002/03/31/
!!!AGN: Council Song
!!!MPN@@SIO: Waha'changka-ya'pi
!!!MPN@ENG: Used-as-a-Shield
!!!TXO: Teton Sioux
!!!MLC: Standing Rock Reservation, South Dakota, United States of America
!!!ARL: 45.9/-100.7#
!!!catalog: Catalogue No. 614
!!!PPG: 450
!!!EFL: 191/245
!!!VTS: 66268632
